X:265
T: Die zehen Gebote Gottes
N: A0620B
O: Europa, Mitteleuropa, Deutschland
N: Babst 1545 II No. 14.
R: Romanze, Ballade, Lied, religioeses Lied
M: 4/1
L: 1/2
K: G
G | G2G2GGG2 | GAB2c2z
c | d2d2c2G2 | A2B2c2z
c | d2d2c2G2 | A2G2F2z
F | A2_B2c4 | _B2G2B3A | G4G3

@@@ Tune index: 578
